packages/graphiql-react/src/icons/merge.svg

<svg
  height="1em"
  viewBox="-2 -2 22 22"
  fill="none"
  xmlns="http://www.w3.org/2000/svg"
>
  <path
    d="M17.2492 6V2.9569C17.2492 1.73806 16.2611 0.75 15.0423 0.75L2.9569 0.75C1.73806 0.75 0.75 1.73806 0.75 2.9569L0.75 6"
    stroke="currentColor"
    stroke-width="1.5"
  />
  <path
    d="M0.749873 12V15.0431C0.749873 16.2619 1.73794 17.25 2.95677 17.25H15.0421C16.261 17.25 17.249 16.2619 17.249 15.0431V12"
    stroke="currentColor"
    stroke-width="1.5"
  />
  <path d="M6 4.5L9 7.5L12 4.5" stroke="currentColor" stroke-width="1.5" />
  <path d="M12 13.5L9 10.5L6 13.5" stroke="currentColor" stroke-width="1.5" />
</svg>

<svg xmlns="http://www.w3.org/2000/svg" height="1em" fill="none" viewBox="-2 -2 22 22">
  <path stroke="currentColor" stroke-width="1.5" d="M17.25 6V2.957A2.207 2.207 0 0 0 15.041.75H2.957A2.207 2.207 0 0 0 .75 2.957V6m0 6v3.043c0 1.219.988 2.207 2.207 2.207h12.085a2.207 2.207 0 0 0 2.207-2.207V12"/>
  <path stroke="currentColor" stroke-width="1.5" d="m6 4.5 3 3 3-3m0 9-3-3-3 3"/>
</svg>
